icons/op-relation-new-child-16.svg

<svg width="16" height="16" viewBox="0 0 16 16" fill="none" xmlns="http://www.w3.org/2000/svg">
<path d="M1.97304 6.70988C2.23339 6.44099 2.6555 6.44099 2.91585 6.70988L4.91585 8.77543C5.1762 9.04431 5.1762 9.48027 4.91585 9.74915L2.91585 11.8147C2.6555 12.0836 2.23339 12.0836 1.97304 11.8147C1.71269 11.5458 1.7127 11.1099 1.97304 10.841L2.83497 9.95081L1.55556 9.95081C0.696446 9.95081 0 9.23153 0 8.34425V1.66666C0 1.29847 0.298477 0.999992 0.666667 0.999992C1.03486 0.999992 1.33333 1.29847 1.33333 1.66666L1.33333 8.34425C1.33333 8.47101 1.43283 8.57376 1.55556 8.57376H2.83497L1.97304 7.68355C1.7127 7.41466 1.7127 6.97878 1.97304 6.70988Z" fill="#24292F"/>
<path fill-rule="evenodd" clip-rule="evenodd" d="M10.2709 3.19333C10.7221 2.93556 11.2779 2.93556 11.7291 3.19333L15.2708 5.47171C15.722 5.72953 16 6.20603 16 6.72171V11.2783C16 11.794 15.722 12.2705 15.2708 12.5283L11.7291 14.8067C11.2779 15.0644 10.7221 15.0644 10.2709 14.8067L6.72924 12.5283C6.27798 12.2705 6 11.794 6 11.2783V6.72171C6 6.20603 6.27798 5.72953 6.72924 5.47171L10.2709 3.19333ZM11.1042 4.26475C11.0397 4.22793 10.9603 4.22793 10.8958 4.26475L7.8749 6.24563L11 8.28603L14.1251 6.24564L11.1042 4.26475ZM7.25 11.2783V7.31707L10.375 9.35742V13.4377L7.35417 11.4569C7.28971 11.42 7.25 11.352 7.25 11.2783ZM14.6458 11.4569L11.625 13.4377V9.35742L14.75 7.31709V11.2783C14.75 11.352 14.7103 11.42 14.6458 11.4569Z" fill="#24292F"/>
</svg>

<svg xmlns="http://www.w3.org/2000/svg" width="16" height="16" viewBox="0 0 16 16"><path d="M1.973 6.71a.652.652 0 0 1 .943 0l2 2.065c.26.269.26.705 0 .974l-2 2.066a.652.652 0 0 1-.943 0 .706.706 0 0 1 0-.974l.862-.89H1.556C.696 9.951 0 9.232 0 8.344V1.667a.666.666 0 1 1 1.333 0v6.677c0 .127.1.23.223.23h1.279l-.862-.89a.706.706 0 0 1 0-.974Zm8.298-3.517a1.475 1.475 0 0 1 1.458 0l3.542 2.279c.451.258.729.734.729 1.25v4.556c0 .516-.278.993-.729 1.25l-3.542 2.279a1.475 1.475 0 0 1-1.458 0l-3.542-2.279A1.44 1.44 0 0 1 6 11.278V6.722c0-.516.278-.992.729-1.25Zm.833 1.072a.209.209 0 0 0-.208 0L7.875 6.246 11 8.286l3.125-2.04ZM7.25 11.278c0 .074.04.142.104.179l3.021 1.981V9.357L7.25 7.317Zm7.396.179a.207.207 0 0 0 .104-.179V7.317l-3.125 2.04v4.081Z"/></svg>
